src/assets/images/contacts/social/WhatsApp.svg

<svg width="32" height="32" viewBox="0 0 32 32" fill="none" xmlns="http://www.w3.org/2000/svg">
<rect x="0.5" y="0.5" width="31" height="31" stroke="#C81426"/>
<path d="M22.3703 9.6168C21.5413 8.78394 20.5542 8.12364 19.4663 7.67438C18.3784 7.22513 17.2116 6.9959 16.0339 7.00006C11.0988 7.00006 7.07685 11.0028 7.07233 15.9168C7.07233 17.4906 7.48594 19.0218 8.26683 20.3774L7 25L11.7509 23.7603C13.0652 24.4723 14.5376 24.8455 16.0339 24.8459H16.0384C20.9746 24.8459 24.9955 20.8431 25 15.9247C25.0011 14.7525 24.7693 13.5916 24.3177 12.509C23.8662 11.4264 23.204 10.4435 22.3692 9.6168H22.3703ZM16.0339 23.3361C14.6993 23.3366 13.3892 22.979 12.2413 22.3011L11.9701 22.1391L9.15168 22.8749L9.90432 20.1378L9.72803 19.8554C8.98195 18.6745 8.58737 17.3073 8.59003 15.9123C8.59003 11.833 11.9317 8.5053 16.0384 8.5053C17.0168 8.50355 17.9858 8.69461 18.8896 9.06745C19.7935 9.4403 20.6142 9.98755 21.3046 10.6777C21.9974 11.3651 22.5466 12.1823 22.9206 13.082C23.2945 13.9818 23.4858 14.9464 23.4834 15.9202C23.4789 20.014 20.1372 23.3361 16.0339 23.3361V23.3361ZM20.1192 17.7854C19.8965 17.674 18.797 17.1351 18.5902 17.0586C18.3845 16.9855 18.2342 16.9473 18.0873 17.17C17.937 17.3916 17.5075 17.8968 17.3787 18.0419C17.2499 18.1915 17.1165 18.2084 16.8928 18.0981C16.6701 17.9856 15.948 17.7516 15.0937 16.99C14.4269 16.3994 13.9805 15.6682 13.8472 15.4465C13.7184 15.2238 13.8348 15.1045 13.9466 14.9932C14.045 14.8942 14.1693 14.7322 14.2811 14.6039C14.3941 14.4757 14.4314 14.3812 14.5049 14.2327C14.5784 14.0819 14.5433 13.9537 14.4879 13.8423C14.4314 13.7309 13.9851 12.6318 13.7963 12.1885C13.6155 11.7509 13.4313 11.8117 13.2934 11.806C13.1646 11.7982 13.0143 11.7982 12.864 11.7982C12.7505 11.801 12.6388 11.8271 12.5359 11.8749C12.4331 11.9227 12.3412 11.9912 12.2662 12.076C12.0605 12.2988 11.4853 12.8377 11.4853 13.9368C11.4853 15.0359 12.2877 16.0923 12.4007 16.2419C12.5114 16.3915 13.976 18.6404 16.2238 19.6079C16.7549 19.8385 17.173 19.9746 17.4996 20.0781C18.0364 20.2491 18.5212 20.2233 18.9077 20.1681C19.3371 20.1029 20.231 19.6281 20.4198 19.1073C20.6051 18.5853 20.6051 18.1398 20.5486 18.0464C20.4932 17.9519 20.3429 17.8968 20.1192 17.7854V17.7854Z" fill="#C81426"/>
</svg>

<svg xmlns="http://www.w3.org/2000/svg" width="32" height="32" fill="none" viewBox="0 0 32 32"><path stroke="#C81426" d="M.5.5h31v31H.5z"/><path fill="#C81426" d="M22.37 9.617A8.91 8.91 0 0 0 16.034 7c-4.935 0-8.957 4.003-8.962 8.917 0 1.574.414 3.105 1.195 4.46L7 25l4.75-1.24a8.997 8.997 0 0 0 4.284 1.086h.004c4.937 0 8.957-4.003 8.962-8.921a8.85 8.85 0 0 0-2.63-6.308zm-6.336 13.72A7.454 7.454 0 0 1 12.24 22.3l-.27-.162-2.82.736.753-2.737-.176-.283a7.355 7.355 0 0 1-1.138-3.943c0-4.079 3.342-7.407 7.448-7.407a7.442 7.442 0 0 1 6.883 4.577c.373.9.565 1.864.562 2.838-.004 4.094-3.346 7.416-7.45 7.416zm4.085-5.552c-.223-.111-1.322-.65-1.529-.726-.206-.074-.356-.112-.503.111-.15.222-.58.727-.708.872-.13.15-.263.166-.486.056-.223-.112-.945-.346-1.8-1.108-.666-.59-1.113-1.322-1.246-1.543-.129-.223-.012-.342.1-.454.098-.099.222-.26.334-.39.113-.127.15-.222.224-.37.073-.151.038-.28-.017-.39-.057-.112-.503-1.211-.692-1.655-.18-.437-.365-.376-.503-.382-.128-.008-.279-.008-.429-.008a.827.827 0 0 0-.598.278c-.206.223-.78.762-.78 1.86 0 1.1.802 2.156.915 2.306.11.15 1.575 2.398 3.823 3.366.53.23.949.367 1.276.47.536.171 1.021.145 1.408.09.43-.065 1.323-.54 1.512-1.06.185-.523.185-.968.129-1.062-.056-.094-.206-.15-.43-.26z"/></svg>
